img/local.svg

<svg width="17" height="17" viewBox="0 0 17 17" fill="none" xmlns="http://www.w3.org/2000/svg">
<path d="M14.0788 4.23113C14.0183 4.00434 13.8954 3.76268 13.8045 3.55111C12.7167 0.936887 10.3399 0 8.42078 0C5.85165 0 3.02206 1.72271 2.64429 5.27362V5.99909C2.64429 6.02937 2.65472 6.30134 2.66954 6.43738C2.88131 8.12966 4.21665 9.92817 5.21393 11.6205C6.28686 13.4336 7.40018 15.2171 8.50319 17C9.18332 15.8365 9.86101 14.6578 10.5257 13.5245C10.7068 13.1919 10.9171 12.8595 11.0984 12.542C11.2193 12.3306 11.4502 12.1192 11.5557 11.9226C12.6285 9.95825 14.3555 7.97875 14.3555 6.02933V5.22849C14.3555 5.01715 14.0936 4.2767 14.0788 4.23113ZM8.46781 7.87298C7.71262 7.87298 6.88601 7.49537 6.478 6.45252C6.41721 6.28651 6.42211 5.95384 6.42211 5.92336V5.45492C6.42211 4.12548 7.55093 3.52091 8.53295 3.52091C9.74192 3.52091 10.677 4.48815 10.677 5.69713C10.677 6.90606 9.67678 7.87298 8.46781 7.87298Z" fill="white"/>
</svg>

<svg width="17" height="17" fill="none" xmlns="http://www.w3.org/2000/svg"><path d="M14.079 4.231c-.06-.227-.184-.468-.274-.68C12.716.937 10.34 0 8.42 0 5.85 0 3.022 1.723 2.644 5.274v.725c0 .03.01.302.026.438.211 1.693 1.547 3.491 2.544 5.183C6.287 13.434 7.4 15.217 8.504 17c.68-1.164 1.357-2.342 2.022-3.476.18-.332.391-.664.572-.982.121-.211.352-.423.458-.62 1.073-1.964 2.8-3.943 2.8-5.893v-.8c0-.212-.262-.952-.277-.998zM8.468 7.873c-.755 0-1.582-.378-1.99-1.42-.06-.166-.056-.5-.056-.53v-.468c0-1.33 1.129-1.934 2.111-1.934 1.209 0 2.144.967 2.144 2.176 0 1.21-1 2.176-2.21 2.176z" fill="#fff"/></svg>
